Newaita-dark/.DP/48/indicator-keyboard-Be.svg

<svg xmlns="http://www.w3.org/2000/svg" xmlns:xlink="http://www.w3.org/1999/xlink" width="48px" height="48px" viewBox="0 0 48 48" version="1.1">
<g id="surface1">
<path style="fill:none;stroke-width:2.995632;stroke-linecap:round;stroke-linejoin:round;stroke:rgb(93.333334%,93.333334%,93.333334%);stroke-opacity:1;stroke-miterlimit:4;" d="M 7.960938 12.28125 C 13.914062 12.28125 17.859375 12.28125 17.859375 18.234375 C 17.859375 24.191406 13.890625 24.191406 7.9375 24.191406 M 7.9375 12.28125 L 7.9375 37.089844 M 39.691406 12.28125 C 33.738281 12.28125 27.785156 11.289062 27.785156 19.226562 L 27.785156 29.152344 C 27.785156 37.089844 33.738281 37.089844 39.691406 37.089844 M 27.785156 24.191406 L 35.722656 24.191406 "/>
<path style="fill:none;stroke-width:2.995632;stroke-linecap:round;stroke-linejoin:round;stroke:rgb(93.333334%,93.333334%,93.333334%);stroke-opacity:1;stroke-miterlimit:4;" d="M 7.960938 24.191406 C 13.914062 24.191406 19.84375 24.191406 19.84375 30.144531 C 19.84375 37.089844 13.890625 37.089844 7.9375 37.089844 "/>
</g>
</svg>

<svg xmlns="http://www.w3.org/2000/svg" width="64" height="64" viewBox="0 0 48 48"><g fill="none" stroke-width="31.95" stroke-linecap="round" stroke-linejoin="round" stroke="#bdbdbd"><path d="M7.96 12.281c5.954 0 9.9 0 9.9 5.953 0 5.957-3.97 5.957-9.922 5.957M7.938 12.281V37.09M39.691 12.281c-5.953 0-11.906-.992-11.906 6.946v9.925c0 7.938 5.953 7.938 11.906 7.938M27.785 24.191h7.938" stroke-width="2.9956319999999996"/><path d="M7.96 24.191c5.954 0 11.884 0 11.884 5.954 0 6.945-5.953 6.945-11.906 6.945" stroke-width="2.9956319999999996"/></g></svg>
